Newaita-dark/actions/24/view-grid.svg

<svg height="24" viewBox="0 0 24 24" width="24" xmlns="http://www.w3.org/2000/svg"><g fill="#e0e0e0"><path d="m2.976562 2.171875h2.480469c.546875 0 .992188.445313.992188.992187v2.480469c0 .546875-.445313.992188-.992188.992188h-2.480469c-.546874 0-.992187-.445313-.992187-.992188v-2.480469c0-.546874.445313-.992187.992187-.992187zm0 0"/><path d="m10.667969 2.171875h2.480469c.546874 0 .992187.445313.992187.992187v2.480469c0 .546875-.445313.992188-.992187.992188h-2.480469c-.550781 0-.992188-.445313-.992188-.992188v-2.480469c0-.546874.441407-.992187.992188-.992187zm0 0"/><path d="m18.355469 2.171875h2.484375c.546875 0 .992187.445313.992187.992187v2.480469c0 .546875-.445312.992188-.992187.992188h-2.484375c-.546875 0-.992188-.445313-.992188-.992188v-2.480469c0-.546874.445313-.992187.992188-.992187zm0 0"/><path d="m2.976562 17.550781h2.480469c.546875 0 .992188.445313.992188.992188v2.484375c0 .546875-.445313.992187-.992188.992187h-2.480469c-.546874 0-.992187-.445312-.992187-.992187v-2.484375c0-.546875.445313-.992188.992187-.992188zm0 0"/><path d="m10.667969 17.550781h2.480469c.546874 0 .992187.445313.992187.992188v2.484375c0 .546875-.445313.992187-.992187.992187h-2.480469c-.550781 0-.992188-.445312-.992188-.992187v-2.484375c0-.546875.441407-.992188.992188-.992188zm0 0"/><path d="m18.355469 17.550781h2.484375c.546875 0 .992187.445313.992187.992188v2.484375c0 .546875-.445312.992187-.992187.992187h-2.484375c-.546875 0-.992188-.445312-.992188-.992187v-2.484375c0-.546875.445313-.992188.992188-.992188zm0 0"/><path d="m2.976562 9.863281h2.480469c.546875 0 .992188.441407.992188.992188v2.480469c0 .546874-.445313.992187-.992188.992187h-2.480469c-.546874 0-.992187-.445313-.992187-.992187v-2.480469c0-.550781.445313-.992188.992187-.992188zm0 0"/><path d="m10.667969 9.863281h2.480469c.546874 0 .992187.441407.992187.992188v2.480469c0 .546874-.445313.992187-.992187.992187h-2.480469c-.550781 0-.992188-.445313-.992188-.992187v-2.480469c0-.550781.441407-.992188.992188-.992188zm0 0"/><path d="m18.355469 9.863281h2.484375c.546875 0 .992187.441407.992187.992188v2.480469c0 .546874-.445312.992187-.992187.992187h-2.484375c-.546875 0-.992188-.445313-.992188-.992187v-2.480469c0-.550781.445313-.992188.992188-.992188zm0 0"/></g></svg>

<?xml version="1.0" encoding="UTF-8"?>
<svg xmlns="http://www.w3.org/2000/svg" xmlns:xlink="http://www.w3.org/1999/xlink" width="24px" height="24px" viewBox="0 0 24 24" version="1.1">
<g id="surface1">
<path style=" stroke:none;fill-rule:nonzero;fill:rgb(87.843138%,87.843138%,87.843138%);fill-opacity:1;" d="M 2.976562 2.171875 L 5.457031 2.171875 C 6.003906 2.171875 6.449219 2.617188 6.449219 3.164062 L 6.449219 5.644531 C 6.449219 6.191406 6.003906 6.636719 5.457031 6.636719 L 2.976562 6.636719 C 2.429688 6.636719 1.984375 6.191406 1.984375 5.644531 L 1.984375 3.164062 C 1.984375 2.617188 2.429688 2.171875 2.976562 2.171875 Z M 2.976562 2.171875 "/>
<path style=" stroke:none;fill-rule:nonzero;fill:rgb(87.843138%,87.843138%,87.843138%);fill-opacity:1;" d="M 10.667969 2.171875 L 13.148438 2.171875 C 13.695312 2.171875 14.140625 2.617188 14.140625 3.164062 L 14.140625 5.644531 C 14.140625 6.191406 13.695312 6.636719 13.148438 6.636719 L 10.667969 6.636719 C 10.117188 6.636719 9.675781 6.191406 9.675781 5.644531 L 9.675781 3.164062 C 9.675781 2.617188 10.117188 2.171875 10.667969 2.171875 Z M 10.667969 2.171875 "/>
<path style=" stroke:none;fill-rule:nonzero;fill:rgb(87.843138%,87.843138%,87.843138%);fill-opacity:1;" d="M 18.355469 2.171875 L 20.839844 2.171875 C 21.386719 2.171875 21.832031 2.617188 21.832031 3.164062 L 21.832031 5.644531 C 21.832031 6.191406 21.386719 6.636719 20.839844 6.636719 L 18.355469 6.636719 C 17.808594 6.636719 17.363281 6.191406 17.363281 5.644531 L 17.363281 3.164062 C 17.363281 2.617188 17.808594 2.171875 18.355469 2.171875 Z M 18.355469 2.171875 "/>
<path style=" stroke:none;fill-rule:nonzero;fill:rgb(87.843138%,87.843138%,87.843138%);fill-opacity:1;" d="M 2.976562 17.550781 L 5.457031 17.550781 C 6.003906 17.550781 6.449219 17.996094 6.449219 18.542969 L 6.449219 21.027344 C 6.449219 21.574219 6.003906 22.019531 5.457031 22.019531 L 2.976562 22.019531 C 2.429688 22.019531 1.984375 21.574219 1.984375 21.027344 L 1.984375 18.542969 C 1.984375 17.996094 2.429688 17.550781 2.976562 17.550781 Z M 2.976562 17.550781 "/>
<path style=" stroke:none;fill-rule:nonzero;fill:rgb(87.843138%,87.843138%,87.843138%);fill-opacity:1;" d="M 10.667969 17.550781 L 13.148438 17.550781 C 13.695312 17.550781 14.140625 17.996094 14.140625 18.542969 L 14.140625 21.027344 C 14.140625 21.574219 13.695312 22.019531 13.148438 22.019531 L 10.667969 22.019531 C 10.117188 22.019531 9.675781 21.574219 9.675781 21.027344 L 9.675781 18.542969 C 9.675781 17.996094 10.117188 17.550781 10.667969 17.550781 Z M 10.667969 17.550781 "/>
<path style=" stroke:none;fill-rule:nonzero;fill:rgb(87.843138%,87.843138%,87.843138%);fill-opacity:1;" d="M 18.355469 17.550781 L 20.839844 17.550781 C 21.386719 17.550781 21.832031 17.996094 21.832031 18.542969 L 21.832031 21.027344 C 21.832031 21.574219 21.386719 22.019531 20.839844 22.019531 L 18.355469 22.019531 C 17.808594 22.019531 17.363281 21.574219 17.363281 21.027344 L 17.363281 18.542969 C 17.363281 17.996094 17.808594 17.550781 18.355469 17.550781 Z M 18.355469 17.550781 "/>
<path style=" stroke:none;fill-rule:nonzero;fill:rgb(87.843138%,87.843138%,87.843138%);fill-opacity:1;" d="M 2.976562 9.863281 L 5.457031 9.863281 C 6.003906 9.863281 6.449219 10.304688 6.449219 10.855469 L 6.449219 13.335938 C 6.449219 13.882812 6.003906 14.328125 5.457031 14.328125 L 2.976562 14.328125 C 2.429688 14.328125 1.984375 13.882812 1.984375 13.335938 L 1.984375 10.855469 C 1.984375 10.304688 2.429688 9.863281 2.976562 9.863281 Z M 2.976562 9.863281 "/>
<path style=" stroke:none;fill-rule:nonzero;fill:rgb(87.843138%,87.843138%,87.843138%);fill-opacity:1;" d="M 10.667969 9.863281 L 13.148438 9.863281 C 13.695312 9.863281 14.140625 10.304688 14.140625 10.855469 L 14.140625 13.335938 C 14.140625 13.882812 13.695312 14.328125 13.148438 14.328125 L 10.667969 14.328125 C 10.117188 14.328125 9.675781 13.882812 9.675781 13.335938 L 9.675781 10.855469 C 9.675781 10.304688 10.117188 9.863281 10.667969 9.863281 Z M 10.667969 9.863281 "/>
<path style=" stroke:none;fill-rule:nonzero;fill:rgb(87.843138%,87.843138%,87.843138%);fill-opacity:1;" d="M 18.355469 9.863281 L 20.839844 9.863281 C 21.386719 9.863281 21.832031 10.304688 21.832031 10.855469 L 21.832031 13.335938 C 21.832031 13.882812 21.386719 14.328125 20.839844 14.328125 L 18.355469 14.328125 C 17.808594 14.328125 17.363281 13.882812 17.363281 13.335938 L 17.363281 10.855469 C 17.363281 10.304688 17.808594 9.863281 18.355469 9.863281 Z M 18.355469 9.863281 "/>
</g>
</svg>
